X:315
T:The Morning Dew
M:C
L:1/8
K:EDor
E2 EB BAFA|EB (3BAB AGFD|E2 EB BAFA|BcdB AGFD|
E2 EB BAFA|EB (3BAB AGFD|E2 EB BAFA|BcdB AGFA ||
B2 eB fB eA|B2 dB AGFA|B2 eB fBef|gedB ABGA|
B2 eB fB eA|B2 dB AGFA|(3Bcd eg f2 fe| dcdB AGFA||
B2 EB GBEA|B2 EB AD D2|B2 EB GBEA|BcdB AGFA|
B2 EB AB EA|B2 EB AD D2|BAGF EFGA|BcdB AGFD |>|
